Newaita-dark/apps/256/nomacs.svg

<?xml version="1.0" encoding="UTF-8"?>
<svg xmlns="http://www.w3.org/2000/svg" xmlns:xlink="http://www.w3.org/1999/xlink" width="256pt" height="256pt" viewBox="0 0 256 256" version="1.1">
<defs>
<linearGradient id="linear0" gradientUnits="userSpaceOnUse" x1="254" y1="233.5" x2="254" y2="254.666672" gradientTransform="matrix(0.500048,0,0,0.500048,-0.0000305205,107.510281)">
<stop offset="0" style="stop-color:rgb(0%,0%,0%);stop-opacity:0.27451;"/>
<stop offset="1" style="stop-color:rgb(0%,0%,0%);stop-opacity:0;"/>
</linearGradient>
<radialGradient id="radial0" gradientUnits="userSpaceOnUse" cx="450.908936" cy="189.579361" fx="450.908936" fy="189.579361" r="21.166656" gradientTransform="matrix(0.00000139336,-0.62506,-1.125108,-0.000000812309,372.061757,508.762661)">
<stop offset="0" style="stop-color:rgb(0%,0%,0%);stop-opacity:0.313725;"/>
<stop offset="0.222222" style="stop-color:rgb(0%,0%,0%);stop-opacity:0.27451;"/>
<stop offset="1" style="stop-color:rgb(0%,0%,0%);stop-opacity:0;"/>
</radialGradient>
<radialGradient id="radial1" gradientUnits="userSpaceOnUse" cx="450.908936" cy="189.579361" fx="450.908936" fy="189.579361" r="21.166656" gradientTransform="matrix(-0.00000139336,0.62506,1.125108,0.000000812309,-118.037486,-60.219831)">
<stop offset="0" style="stop-color:rgb(0%,0%,0%);stop-opacity:0.313725;"/>
<stop offset="0.222222" style="stop-color:rgb(0%,0%,0%);stop-opacity:0.27451;"/>
<stop offset="1" style="stop-color:rgb(0%,0%,0%);stop-opacity:0;"/>
</radialGradient>
<radialGradient id="radial2" gradientUnits="userSpaceOnUse" cx="450.908936" cy="189.579361" fx="450.908936" fy="189.579361" r="21.166656" gradientTransform="matrix(-0.00000139336,-0.62506,1.125108,-0.000000812309,-118.037486,508.762661)">
<stop offset="0" style="stop-color:rgb(0%,0%,0%);stop-opacity:0.313725;"/>
<stop offset="0.222222" style="stop-color:rgb(0%,0%,0%);stop-opacity:0.27451;"/>
<stop offset="1" style="stop-color:rgb(0%,0%,0%);stop-opacity:0;"/>
</radialGradient>
<radialGradient id="radial3" gradientUnits="userSpaceOnUse" cx="450.908936" cy="189.579361" fx="450.908936" fy="189.579361" r="21.166656" gradientTransform="matrix(0.00000139336,0.62506,-1.125108,0.000000812309,372.061741,-60.219835)">
<stop offset="0" style="stop-color:rgb(0%,0%,0%);stop-opacity:0.313725;"/>
<stop offset="0.222222" style="stop-color:rgb(0%,0%,0%);stop-opacity:0.27451;"/>
<stop offset="1" style="stop-color:rgb(0%,0%,0%);stop-opacity:0;"/>
</radialGradient>
<linearGradient id="linear1" gradientUnits="userSpaceOnUse" x1="254" y1="233.5" x2="254" y2="-147.5" gradientTransform="matrix(0.500048,0,0,0.500048,0.174085,107.510264)">
<stop offset="0" style="stop-color:rgb(69.019608%,74.509804%,77.254902%);stop-opacity:1;"/>
<stop offset="1" style="stop-color:rgb(81.176471%,84.705882%,86.27451%);stop-opacity:1;"/>
</linearGradient>
<linearGradient id="linear2" gradientUnits="userSpaceOnUse" x1="960" y1="975.118103" x2="960" y2="535.118103" >
<stop offset="0" style="stop-color:rgb(83.137255%,88.235294%,34.117647%);stop-opacity:1;"/>
<stop offset="1" style="stop-color:rgb(90.196078%,93.333333%,61.176471%);stop-opacity:1;"/>
</linearGradient>
<linearGradient id="linear3" gradientUnits="userSpaceOnUse" x1="241.916656" y1="16.541662" x2="266.083313" y2="16.541662" gradientTransform="matrix(1,0,0,1,-80.319992,158.858627)">
<stop offset="0" style="stop-color:rgb(48.627451%,70.196078%,25.882353%);stop-opacity:1;"/>
<stop offset="1" style="stop-color:rgb(61.176471%,80%,39.607843%);stop-opacity:1;"/>
</linearGradient>
<linearGradient id="linear4" gradientUnits="userSpaceOnUse" x1="241.916656" y1="16.541662" x2="266.083313" y2="16.541662" gradientTransform="matrix(1,0,0,1,-0.557675,-109.955101)">
<stop offset="0" style="stop-color:rgb(48.627451%,70.196078%,25.882353%);stop-opacity:1;"/>
<stop offset="1" style="stop-color:rgb(61.176471%,80%,39.607843%);stop-opacity:1;"/>
</linearGradient>
</defs>
<g id="surface1">
<path style=" stroke:none;fill-rule:nonzero;fill:url(#linear0);" d="M 92.613281 224.269531 L 161.410156 224.269531 L 161.410156 234.855469 L 92.613281 234.855469 Z M 92.613281 224.269531 "/>
<path style=" stroke:none;fill-rule:nonzero;fill:url(#radial0);" d="M 161.410156 224.269531 L 182.578125 224.269531 L 182.578125 213.6875 L 161.410156 213.6875 Z M 161.410156 224.269531 "/>
<path style=" stroke:none;fill-rule:nonzero;fill:url(#radial1);" d="M 92.613281 224.269531 L 71.445312 224.269531 L 71.445312 234.855469 L 92.613281 234.855469 Z M 92.613281 224.269531 "/>
<path style=" stroke:none;fill-rule:nonzero;fill:url(#radial2);" d="M 92.613281 224.269531 L 71.445312 224.269531 L 71.445312 213.6875 L 92.613281 213.6875 Z M 92.613281 224.269531 "/>
<path style=" stroke:none;fill-rule:nonzero;fill:url(#radial3);" d="M 161.410156 224.269531 L 182.578125 224.269531 L 182.578125 234.855469 L 161.410156 234.855469 Z M 161.410156 224.269531 "/>
<path style=" stroke:none;fill-rule:nonzero;fill:url(#linear1);" d="M 53.097656 39.046875 L 121.894531 139.597656 L 119.246094 203.101562 C 119.246094 208.394531 116.601562 213.6875 111.308594 213.6875 L 87.496094 213.6875 C 84.5625 213.6875 82.203125 215.941406 82.203125 218.742188 L 82.203125 219.21875 C 82.203125 222.015625 84.5625 224.269531 87.496094 224.269531 L 166.878906 224.269531 C 169.808594 224.269531 172.167969 222.015625 172.167969 219.21875 L 172.167969 218.742188 C 172.167969 215.941406 169.808594 213.6875 166.878906 213.6875 L 143.0625 213.6875 C 137.769531 213.6875 135.125 208.394531 135.125 203.101562 L 132.476562 139.597656 L 201.277344 39.046875 Z M 53.097656 39.046875 "/>
<path style="fill-rule:nonzero;fill:url(#linear2);stroke-width:11.338583;stroke-linecap:square;stroke-linejoin:round;stroke:rgb(12.941177%,12.941177%,12.941177%);stroke-opacity:1;stroke-miterlimit:4;" d="M 604.430501 535.106408 L 919.990934 975.113625 C 940.008708 955.125376 980.014733 955.125376 1000.002982 975.113625 L 1310.691833 535.106408 Z M 604.430501 535.106408 " transform="matrix(0.132304,0,0,0.132304,0,0)"/>
<path style=" stroke:none;fill-rule:nonzero;fill:rgb(25.882354%,25.882354%,25.882354%);fill-opacity:1;" d="M 209.425781 25.730469 L 129.832031 117.832031 L 128.824219 116.976562 C 155.84375 84.300781 183.269531 51.132812 206.394531 23.167969 Z M 209.425781 25.730469 "/>
<path style="fill-rule:nonzero;fill:url(#linear3);stroke-width:3;stroke-linecap:square;stroke-linejoin:round;stroke:rgb(12.941177%,12.941177%,12.941177%);stroke-opacity:1;stroke-miterlimit:4;" d="M 173.679072 159.529002 C 179.521355 159.527011 184.264146 164.262331 184.261095 170.11058 L 184.266822 180.691918 C 184.26377 186.540167 179.522484 191.277916 173.680201 191.279907 C 167.831952 191.276855 163.094204 186.535569 163.092212 180.693286 L 163.097494 170.111025 C 163.100546 164.262776 167.830823 159.52595 173.679072 159.529002 Z M 173.679072 159.529002 " transform="matrix(0.38189,-0.322812,0.322812,0.38189,0,107.510266)"/>
<path style="fill-rule:nonzero;fill:url(#linear4);stroke-width:3;stroke-linecap:square;stroke-linejoin:round;stroke:rgb(12.941177%,12.941177%,12.941177%);stroke-opacity:1;stroke-miterlimit:4;" d="M 253.443271 -109.28794 C 259.29127 -109.287338 264.024592 -104.548607 264.023991 -98.700608 L 264.022788 -88.121691 C 264.029397 -82.276696 259.283456 -77.54037 253.445672 -77.536765 C 247.597673 -77.537366 242.85714 -82.273092 242.857742 -88.121092 L 242.85594 -98.70722 C 242.859546 -104.548009 247.595272 -109.288541 253.443271 -109.28794 Z M 253.443271 -109.28794 " transform="matrix(0.461583,0.192326,-0.192326,0.461583,0,107.510266)"/>
<path style=" stroke:none;fill-rule:nonzero;fill:rgb(100%,100%,100%);fill-opacity:0.392157;" d="M 52.921875 38.398438 L 54.730469 41.046875 L 199.292969 41.046875 L 201.101562 38.398438 Z M 121.617188 141.445312 L 119.074219 202.457031 C 119.074219 207.75 116.429688 213.042969 111.136719 213.042969 L 87.320312 213.042969 C 84.390625 213.042969 82.027344 215.296875 82.027344 218.09375 L 82.027344 218.570312 C 82.027344 218.945312 82.070312 219.308594 82.152344 219.65625 C 82.667969 217.382812 84.78125 215.6875 87.320312 215.6875 L 111.136719 215.6875 C 116.429688 215.6875 119.074219 210.394531 119.074219 205.101562 L 121.71875 141.597656 Z M 132.40625 141.445312 L 132.304688 141.597656 L 134.949219 205.101562 C 134.949219 210.394531 137.597656 215.6875 142.886719 215.6875 L 166.703125 215.6875 C 169.246094 215.6875 171.355469 217.382812 171.871094 219.65625 C 171.953125 219.308594 171.996094 218.945312 171.996094 218.570312 L 171.996094 218.09375 C 171.996094 215.296875 169.636719 213.042969 166.703125 213.042969 L 142.886719 213.042969 C 137.597656 213.042969 134.949219 207.75 134.949219 202.457031 Z M 132.40625 141.445312 "/>
<path style=" stroke:none;fill-rule:nonzero;fill:rgb(0%,0%,0%);fill-opacity:0.235294;" d="M 52.921875 39.046875 L 121.664062 139.515625 L 121.71875 138.203125 L 53.875 39.046875 Z M 200.148438 39.046875 L 132.304688 138.203125 L 132.359375 139.515625 L 201.101562 39.046875 Z M 82.050781 218.28125 C 82.035156 218.433594 82.027344 218.585938 82.027344 218.742188 L 82.027344 219.21875 C 82.027344 222.015625 84.390625 224.269531 87.320312 224.269531 L 166.703125 224.269531 C 169.636719 224.269531 171.996094 222.015625 171.996094 219.21875 L 171.996094 218.742188 C 171.996094 218.585938 171.988281 218.433594 171.972656 218.28125 C 171.730469 220.867188 169.472656 222.878906 166.703125 222.878906 L 87.320312 222.878906 C 84.550781 222.878906 82.292969 220.867188 82.050781 218.28125 Z M 82.050781 218.28125 "/>
<path style=" stroke:none;fill-rule:nonzero;fill:rgb(12.941177%,12.941177%,12.941177%);fill-opacity:1;" d="M 53.097656 38.296875 C 52.816406 38.296875 52.5625 38.449219 52.433594 38.695312 C 52.304688 38.941406 52.320312 39.238281 52.476562 39.46875 L 121.132812 139.8125 L 118.5 203.070312 C 118.496094 205.625 117.855469 208.140625 116.640625 209.964844 C 115.421875 211.789062 113.707031 212.9375 111.308594 212.9375 L 87.496094 212.9375 C 84.179688 212.9375 81.453125 215.519531 81.453125 218.742188 L 81.453125 219.21875 C 81.453125 222.4375 84.179688 225.023438 87.496094 225.023438 L 166.878906 225.023438 C 170.195312 225.023438 172.917969 222.4375 172.917969 219.21875 L 172.917969 218.742188 C 172.917969 215.519531 170.195312 212.9375 166.878906 212.9375 L 143.0625 212.9375 C 140.667969 212.9375 138.949219 211.789062 137.734375 209.964844 C 136.515625 208.140625 135.875 205.625 135.875 203.101562 L 133.238281 139.8125 L 201.894531 39.46875 C 202.050781 39.238281 202.070312 38.941406 201.9375 38.695312 C 201.808594 38.449219 201.554688 38.296875 201.277344 38.296875 Z M 54.519531 39.796875 L 199.855469 39.796875 L 131.859375 139.171875 C 131.769531 139.308594 131.722656 139.464844 131.730469 139.628906 L 134.375 203.101562 C 134.375 205.875 135.054688 208.652344 136.484375 210.796875 C 137.914062 212.941406 140.167969 214.4375 143.0625 214.4375 L 166.878906 214.4375 C 169.425781 214.4375 171.417969 216.363281 171.417969 218.742188 L 171.417969 219.21875 C 171.417969 221.59375 169.425781 223.519531 166.878906 223.519531 L 87.496094 223.519531 C 84.949219 223.519531 82.953125 221.59375 82.953125 219.21875 L 82.953125 218.742188 C 82.953125 216.363281 84.949219 214.4375 87.496094 214.4375 L 111.308594 214.4375 C 114.207031 214.4375 116.457031 212.941406 117.886719 210.796875 C 119.316406 208.652344 119.996094 205.875 119.996094 203.101562 L 119.996094 203.132812 L 122.644531 139.628906 C 122.648438 139.464844 122.605469 139.308594 122.511719 139.171875 Z M 54.519531 39.796875 "/>
</g>
</svg>

<svg xmlns="http://www.w3.org/2000/svg" width="256pt" height="256pt" viewBox="0 0 256 256"><defs><linearGradient id="a" gradientUnits="userSpaceOnUse" x1="254" y1="233.5" x2="254" y2="254.667" gradientTransform="matrix(.50005 0 0 .50005 0 107.51)"><stop offset="0" stop-opacity=".275"/><stop offset="1" stop-opacity="0"/></linearGradient><radialGradient id="b" gradientUnits="userSpaceOnUse" cx="450.909" cy="189.579" fx="450.909" fy="189.579" r="21.167" gradientTransform="matrix(0 -.62506 -1.1251 0 372.062 508.763)"><stop offset="0" stop-opacity=".314"/><stop offset=".222" stop-opacity=".275"/><stop offset="1" stop-opacity="0"/></radialGradient><radialGradient id="c" gradientUnits="userSpaceOnUse" cx="450.909" cy="189.579" fx="450.909" fy="189.579" r="21.167" gradientTransform="matrix(0 .62506 1.1251 0 -118.037 -60.22)"><stop offset="0" stop-opacity=".314"/><stop offset=".222" stop-opacity=".275"/><stop offset="1" stop-opacity="0"/></radialGradient><radialGradient id="d" gradientUnits="userSpaceOnUse" cx="450.909" cy="189.579" fx="450.909" fy="189.579" r="21.167" gradientTransform="matrix(0 -.62506 1.1251 0 -118.037 508.763)"><stop offset="0" stop-opacity=".314"/><stop offset=".222" stop-opacity=".275"/><stop offset="1" stop-opacity="0"/></radialGradient><radialGradient id="e" gradientUnits="userSpaceOnUse" cx="450.909" cy="189.579" fx="450.909" fy="189.579" r="21.167" gradientTransform="matrix(0 .62506 -1.1251 0 372.062 -60.22)"><stop offset="0" stop-opacity=".314"/><stop offset=".222" stop-opacity=".275"/><stop offset="1" stop-opacity="0"/></radialGradient><linearGradient id="f" gradientUnits="userSpaceOnUse" x1="254" y1="233.5" x2="254" y2="-147.5" gradientTransform="matrix(.50005 0 0 .50005 .174 107.51)"><stop offset="0" stop-color="#b0bec5"/><stop offset="1" stop-color="#cfd8dc"/></linearGradient><linearGradient id="g" gradientUnits="userSpaceOnUse" x1="960" y1="975.118" x2="960" y2="535.118"><stop offset="0" stop-color="#d4e157"/><stop offset="1" stop-color="#e6ee9c"/></linearGradient><linearGradient id="h" gradientUnits="userSpaceOnUse" x1="241.917" y1="16.542" x2="266.083" y2="16.542" gradientTransform="translate(-80.32 158.859)"><stop offset="0" stop-color="#7cb342"/><stop offset="1" stop-color="#9ccc65"/></linearGradient><linearGradient id="i" gradientUnits="userSpaceOnUse" x1="241.917" y1="16.542" x2="266.083" y2="16.542" gradientTransform="translate(-.558 -109.955)"><stop offset="0" stop-color="#7cb342"/><stop offset="1" stop-color="#9ccc65"/></linearGradient></defs><path d="M92.613 224.27h68.797v10.585H92.613zm0 0" fill="url(#a)"/><path d="M161.41 224.27h21.168v-10.583H161.41zm0 0" fill="url(#b)"/><path d="M92.613 224.27H71.445v10.585h21.168zm0 0" fill="url(#c)"/><path d="M92.613 224.27H71.445v-10.583h21.168zm0 0" fill="url(#d)"/><path d="M161.41 224.27h21.168v10.585H161.41zm0 0" fill="url(#e)"/><path d="M53.098 39.047l68.797 100.55-2.649 63.505c0 5.293-2.644 10.585-7.937 10.585H87.496c-2.933 0-5.293 2.254-5.293 5.055v.477c0 2.797 2.36 5.05 5.293 5.05h79.383c2.93 0 5.289-2.253 5.289-5.05v-.477c0-2.8-2.36-5.054-5.29-5.054h-23.815c-5.293 0-7.938-5.293-7.938-10.586l-2.648-63.504 68.8-100.551zm0 0" fill="url(#f)"/><path d="M604.43 535.106l315.56 440.008c20.019-19.989 60.025-19.989 80.013 0l310.689-440.008zm0 0" transform="scale(.1323)" fill="url(#g)" stroke-width="11.339" stroke-linecap="square" stroke-linejoin="round" stroke="#212121"/><path d="M209.426 25.73l-79.594 92.102-1.008-.855 77.57-93.809zm0 0" fill="#424242"/><path d="M173.68 159.529c5.841-.002 10.584 4.733 10.581 10.582l.006 10.58c-.003 5.85-4.745 10.587-10.587 10.589-5.848-.003-10.586-4.744-10.588-10.587l.005-10.582c.004-5.848 4.734-10.585 10.582-10.582zm0 0" transform="rotate(-40.208 146.862 53.756) scale(.50005)" fill="url(#h)" stroke-width="3" stroke-linecap="square" stroke-linejoin="round" stroke="#212121"/><path d="M253.443-109.288c5.848 0 10.582 4.74 10.581 10.587l-.001 10.58c.006 5.844-4.74 10.58-10.577 10.584-5.848 0-10.589-4.736-10.588-10.584l-.002-10.586c.004-5.841 4.74-10.582 10.587-10.58zm0 0" transform="rotate(22.62 -268.776 53.758) scale(.50005)" fill="url(#i)" stroke-width="3" stroke-linecap="square" stroke-linejoin="round" stroke="#212121"/><path d="M52.922 38.398l1.808 2.649h144.563l1.809-2.649zm68.695 103.047l-2.543 61.012c0 5.293-2.644 10.586-7.937 10.586H87.32c-2.93 0-5.293 2.254-5.293 5.05v.477c0 .375.043.739.125 1.086.516-2.273 2.63-3.969 5.168-3.969h23.817c5.293 0 7.937-5.292 7.937-10.585l2.645-63.504zm10.79 0l-.102.153 2.644 63.504c0 5.293 2.649 10.585 7.938 10.585h23.816c2.543 0 4.652 1.696 5.168 3.97.082-.348.125-.712.125-1.087v-.476c0-2.797-2.36-5.051-5.293-5.051h-23.816c-5.29 0-7.938-5.293-7.938-10.586zm0 0" fill="#fff" fill-opacity=".392"/><path d="M52.922 39.047l68.742 100.469.055-1.313-67.844-99.156zm147.226 0l-67.843 99.156.054 1.313 68.743-100.47zM82.051 218.28a4.496 4.496 0 0 0-.024.461v.477c0 2.797 2.364 5.05 5.293 5.05h79.383c2.934 0 5.293-2.253 5.293-5.05v-.477c0-.156-.008-.308-.023-.46-.243 2.585-2.5 4.597-5.27 4.597H87.32c-2.77 0-5.027-2.012-5.27-4.598zm0 0" fill-opacity=".235"/><path d="M53.098 38.297a.745.745 0 0 0-.664.398.754.754 0 0 0 .043.774l68.656 100.344-2.633 63.257c-.004 2.555-.645 5.07-1.86 6.895-1.218 1.824-2.933 2.972-5.331 2.972H87.496c-3.316 0-6.043 2.583-6.043 5.805v.477c0 3.219 2.727 5.804 6.043 5.804h79.383c3.316 0 6.039-2.585 6.039-5.804v-.477c0-3.222-2.723-5.804-6.04-5.804h-23.815c-2.395 0-4.114-1.149-5.329-2.973-1.218-1.824-1.859-4.34-1.859-6.863l-2.637-63.29L201.895 39.47a.745.745 0 0 0 .042-.774.743.743 0 0 0-.66-.398zm1.422 1.5h145.335l-67.996 99.375a.76.76 0 0 0-.129.457l2.645 63.473c0 2.773.68 5.55 2.11 7.695 1.43 2.144 3.683 3.64 6.577 3.64h23.817c2.547 0 4.539 1.926 4.539 4.305v.477c0 2.375-1.992 4.3-4.54 4.3H87.497c-2.547 0-4.543-1.925-4.543-4.3v-.477c0-2.379 1.996-4.304 4.543-4.304h23.813c2.898 0 5.148-1.497 6.578-3.641 1.43-2.145 2.11-4.922 2.11-7.695v.03l2.648-63.503a.764.764 0 0 0-.133-.457zm0 0" fill="#212121"/></svg>
